X: 95
T:Sleepy Maggie. JC.095
M:C|
L:1/8
Q:180
S:John Clare,Poet,Helpston. (1793-1864)
R:Reel
O:England
A:Northamptonshire
N:
Z:vmp.P. Headford
K:D
f2Bd fBde|f2df eAce|f2de fBde|fgaf eAce:|!
|:fBdB fBde|fBdB eAce|fBdB fBde|f^gaf eAce:|]
W:MS includes Dance Instructions.Song text exists. See Deacon.|
